X:99
T: Wie die Blmlein drauáen zittern (1-24), S. 65
N: K0098
O: Luxemburg
S: KINTZELE, Guillaume: An der Ucht, Bd. 1, Luxemburg 1926]
N: in der Quelle mit einer 2. Stimme versehen
R: Trennung, Abschied]
M: 3/4
L: 1/16
K: C
G3A | G4E4c3d | c4B4
D2D2 | B4A4G3F | E4z4
G3A | G4E4c3d | c4B4
D2D2 | B4A4G2F2 | E4z2
G2G2e2 | c6B2A2f2 | d6
c2B2c2 | d3GG2G2A2B2 | c4z2
G2G2e2 | c6B2A2f2 | d6
c2B2c2 | d3GG2G2A2B2 | c4z4

